X:390
T: Patrick Kelly's Favorite
S: "Ag Deanamh Ceoil" (CCE)
Z: B.Black
L: 1/8
M: 12/8
R: slide
K: G
GE|ABA AGE c2B c2d|ege edB gfg e2d|
Bd/e/f gfg ecA GAB|cBA BGE A3 A :|
Bd|eaa aga g3 gfg|a3 age gea ged|
Bd/e/f gfg ecA GAB|cBA BGE A3 A :|
